X: 36838
T: Shipley's
R: reel
M: 4/4
K: Dmajor
|:dB|A2AB AFDF|Adcd AFDF|GABG FGAF|G2E2 E2dB|
A2AB AFDF|Adcd AFDF|GABc dABG|F2D2 D2:|
|:fe|d2de dfaf|edef efge|dcde dfaf|edcB ABcA|
dcde dfaf|edef efge|fgaf bgec|d2d2 d2:|

